<?xml version="1.0" encoding="UTF-8"?>
<map version="1.10" tiledversion="1.11.1" orientation="orthogonal" renderorder="right-down" width="40" height="12" tilewidth="64" tileheight="64" infinite="0" nextlayerid="6" nextobjectid="22">
 <editorsettings>
  <export target="level1.lua" format="lua"/>
 </editorsettings>
 <tileset firstgid="1" name="platformer" tilewidth="64" tileheight="64" tilecount="9" columns="3">
  <image source="tileset.png" width="192" height="192"/>
 </tileset>
 <tileset firstgid="10" name="Flag" tilewidth="64" tileheight="64" tilecount="1" columns="1">
  <image source="../flag.png" width="64" height="64"/>
 </tileset>
 <layer id="1" name="Tile Layer 1" width="40" height="12">
  <data encoding="csv">
0,0,0,0,0,0,0,0,0,0,0,0,0,0,0,0,0,0,0,0,0,0,0,0,0,0,0,0,0,0,0,0,0,0,0,0,0,0,0,0,
0,0,0,0,0,0,0,0,0,0,0,0,0,0,0,0,0,0,0,0,0,0,0,0,0,0,0,0,0,0,0,0,0,0,0,0,0,0,0,0,
0,0,0,0,0,0,0,0,0,0,0,0,0,0,0,0,0,0,0,0,0,0,0,0,0,0,0,0,0,0,0,0,0,0,0,0,0,0,0,0,
0,0,0,0,0,0,0,0,0,0,0,0,0,0,0,0,0,0,0,0,0,0,0,0,0,0,0,0,0,0,0,0,0,0,0,0,0,0,0,0,
0,0,0,0,0,0,0,0,0,0,0,0,0,0,0,0,0,0,0,0,0,0,0,0,0,0,0,0,0,0,0,0,0,0,0,0,0,0,0,0,
0,0,0,0,0,0,0,0,0,0,0,0,0,0,0,0,0,0,0,7,8,8,8,8,8,9,0,0,0,0,0,0,0,0,0,0,0,0,0,0,
0,0,0,1,2,2,2,0,0,0,0,0,0,0,0,0,0,0,0,0,0,0,0,0,0,0,0,0,0,0,0,0,0,0,0,0,0,0,0,0,
0,0,0,4,5,5,5,0,0,7,8,8,8,8,8,8,8,9,0,0,0,0,0,0,0,0,0,0,0,0,10,0,0,0,0,0,0,0,0,0,
0,0,0,4,5,5,5,0,0,0,0,0,0,0,0,0,0,0,0,0,0,0,0,0,0,0,0,0,1,2,2,3,0,0,0,0,0,0,0,0,
0,0,0,4,5,5,5,0,0,0,0,0,0,0,0,0,0,0,0,0,0,0,0,0,0,0,0,0,4,5,5,6,0,0,0,0,0,0,0,0,
0,0,0,4,5,5,5,0,0,0,0,0,0,0,0,0,0,0,0,0,0,0,0,0,0,0,0,0,4,5,5,6,0,0,0,0,0,0,0,0,
0,0,0,4,5,5,5,0,0,0,0,0,0,0,0,0,0,0,0,0,0,0,0,0,0,0,0,0,4,5,5,6,0,0,0,0,0,0,0,0
</data>
 </layer>
 <objectgroup id="4" name="Flag">
  <object id="20" x="1920" y="448" width="64" height="64"/>
 </objectgroup>
 <objectgroup id="5" name="Start">
  <object id="21" x="256" y="320" width="64" height="64"/>
 </objectgroup>
 <objectgroup id="3" name="Enemies">
  <object id="17" x="832" y="384" width="64" height="64"/>
  <object id="18" x="1408" y="256" width="64" height="64"/>
 </objectgroup>
 <objectgroup id="2" name="platforms">
  <object id="4" x="194" y="388" width="254" height="124"/>
  <object id="5" x="576" y="448" width="576" height="64"/>
  <object id="8" x="1792" y="512" width="256" height="64"/>
  <object id="14" x="1216" y="320" width="448" height="64"/>
 </objectgroup>
</map>
